X: 23973
T: Lock Keeper's Cottage, The
R: waltz
M: 3/4
K: Bminor
FA|:"Bm"B2c2 d2|c3B F2|"G"G2 A2 B2|B4FA|"Bm"B2c2d2|c3 Bf2|"G"f2 g2 df|"A" e4de|
"Bm"f2 g2 f2|"A" e2d2e2|"Bm"f d2 A3|"G"B4Bc|df3 ed|"A"cd2c3|"Bm"B2B2"A"cA|1 "Bm"B4FA:|2 "Bm"B4f2||
|:"Em"g2a2g2|"Bm"f2e2d2|"A"cd2c2A|"G"B4f2|"Em"g2a2g2|"Bm"fe2d3|"A"e(c4c)|c2 ef3|
"Em"g2a2g2|"Bm"f2e2d2|"A"cd2c2A|"G"B4F2|G2A2d2|"A"c/d/c/d/ c/d/c AA|1 "G" B2c/B/AB2|"G"B6:|2 "Bm" B2cB A2|"Bm"B4]|

